!!!COM: Music21
!!!OTL: O Rodaballo
!!!OMV: pezas_foliadas_o-rodaballo_o-rodaballo-partitura.musicxml
**kern
*I"Bagpipes
*I'Bag
*clefG^2
*k[b-]
*F:
*M3/4
=1
!LO:TX:a:t=Prestissimo
*MM210
!LO:TX:a:t=[quarter]=210
4.cc
8cc
4cc
=
4cc
4cc
4cc
=
4dd
8eeL
8ddJ
[4cc
=
4cc]
4cc
4ee
=
2gg
4aa
=
2bb-
4ccc
=
4aa
4ccc
[4aa
=
2.aa]
=||
*M3/4
!LO:TX:a:t=Prestissimo
*MM210
!LO:TX:a:t=[quarter]=210
4.cc
8cc
4cc
=
4cc
4cc
4cc
!!linebreak:original
=
4dd
8eeL
8ddJ
[4cc
=
4cc]
4cc
4ee
=
2gg
4aa
=
2bb-
4ccc
=
4aa
4ccc
[4aa
=
4aa]
4ccc
4bb-
=||
2aa
4bb-
=
2ccc
4ddd
=
4.bb-
8aa
[4gg
!!linebreak:original
=
2.gg]
=
4.ee
8ee
4ee
=
4ee
4dd
4cc
=
4dd
12ddL
12ee
12ddJ
[4cc
=
4cc]
4cc
4ee
=
4gg
4ccc
[4bb-
=
4bb-]
2aa
=
4ccc
4ccc
[4aa
=
4aa]
2ff
=
4bb-
4bb-
[4gg
=
4gg]
2ee
=
4gg
12ggL
12aa
12ggJ
[4ff
!!linebreak:original
=
4ff]
4cc
4cc
=||
4aa
8ggL
8aaJ
[4bb-
=
4bb-]
4cc
4cc
=
4gg
8ffL
8ggJ
[4aa
=
4aa]
4cc
4cc
=
4bb-
4gg
4ee
=
4cc
4dd
4ee
=
4ff
8eeL
8ddJ
4cc
=
4cc
4cc
4cc
=
4aa
8ggL
8aaJ
[4bb-
!!linebreak:original
=
4bb-]
4cc
4cc
!!linebreak:original
=
4gg
8ffL
8ggJ
[4aa
=
4aa]
4cc
4cc
=
4bb-
4gg
4ee
=
4cc
4dd
4ee
=
[2.ff
=
4ff]
4cc
4cc
=||
4aa
8ggL
8aaJ
[4bb-
=
4bb-]
4cc
4cc
=
4gg
8ffL
8ggJ
[4aa
=
4aa]
4cc
4cc
=
4bb-
4gg
4ee
!!linebreak:original
=
4cc
4dd
4ee
=
4ff
8eeL
8ddJ
4cc
=
4cc
4cc
4cc
=
4aa
8ggL
8aaJ
[4bb-
=
4bb-]
4cc
4cc
!!linebreak:original
=
4gg
8ffL
8ggJ
[4aa
=
4aa]
4cc
4cc
=
4bb-
4gg
4ee
=
4cc
4dd
4ee
=
[2.ff
=
2.ff]
==
*-
